X:4276
L:1/8
Q:3/8=120
M:6/8
K:C
 C |[K:G] Dc dffee ad"_Numbers shown are in MS" GBd gfg | edc BAG | GBd gfg | fdd def | gfg fdB | 
 cec dBG | BBB cAd | BGG"^2" G3 :: (B/c/)dB (c/d/)ec | dcB{B} A2 G | Bcd efg | fdd def | gfg fdB | 
 cec dBG | BBB cAd | BGG G3 :|

